src/images/plus.svg

<svg width="11" height="11" viewBox="0 0 11 11" fill="none" xmlns="http://www.w3.org/2000/svg">
<path fill-rule="evenodd" clip-rule="evenodd" d="M7 1C7 0.447715 6.55228 0 6 0H5C4.44772 0 4 0.447715 4 1V3C4 3.55229 3.55228 4 3 4H1C0.447715 4 0 4.44772 0 5V6C0 6.55228 0.447715 7 1 7H3C3.55228 7 4 7.44772 4 8V10C4 10.5523 4.44772 11 5 11H6C6.55228 11 7 10.5523 7 10V8C7 7.44771 7.44772 7 8 7H10C10.5523 7 11 6.55228 11 6V5C11 4.44772 10.5523 4 10 4H8C7.44772 4 7 3.55228 7 3V1Z" fill="#ADA8C4"/>
</svg>

<svg xmlns="http://www.w3.org/2000/svg" width="11" height="11" fill="none"><path fill="#ADA8C4" fill-rule="evenodd" d="M7 1a1 1 0 0 0-1-1H5a1 1 0 0 0-1 1v2a1 1 0 0 1-1 1H1a1 1 0 0 0-1 1v1a1 1 0 0 0 1 1h2a1 1 0 0 1 1 1v2a1 1 0 0 0 1 1h1a1 1 0 0 0 1-1V8a1 1 0 0 1 1-1h2a1 1 0 0 0 1-1V5a1 1 0 0 0-1-1H8a1 1 0 0 1-1-1V1Z" clip-rule="evenodd"/></svg>
